icons/svg/seamark/notice_prohibition_nosailingcraft.svg

<?xml version="1.0" encoding="UTF-8" standalone="no"?>
<svg
   xmlns:dc="http://purl.org/dc/elements/1.1/"
   xmlns:cc="http://creativecommons.org/ns#"
   xmlns:rdf="http://www.w3.org/1999/02/22-rdf-syntax-ns#"
   xmlns:svg="http://www.w3.org/2000/svg"
   xmlns="http://www.w3.org/2000/svg"
   xmlns:sodipodi="http://sodipodi.sourceforge.net/DTD/sodipodi-0.dtd"
   xmlns:inkscape="http://www.inkscape.org/namespaces/inkscape"
   width="320"
   height="320"
   id="svg2"
   version="1.1"
   inkscape:version="0.48.4 r9939"
   sodipodi:docname="notice_prohibition_no_waterskiing.svg">
  <defs
     id="defs13">
    <inkscape:path-effect
       effect="gears"
       id="path-effect3774"
       is_visible="true"
       teeth="6"
       phi="-1.2" />
    <inkscape:path-effect
       effect="bend_path"
       id="path-effect3772"
       is_visible="false"
       bendpath="m 95.790098,316.51174 c 144.429032,-206.42506 223.313032,-11.7428 339.548092,0"
       prop_scale="1.19"
       scale_y_rel="false"
       vertical="false"
       bendpath-nodetypes="cc" />
    <inkscape:path-effect
       effect="spiro"
       id="path-effect3775"
       is_visible="true" />
    <inkscape:path-effect
       effect="spiro"
       id="path-effect3775-9"
       is_visible="true" />
    <inkscape:path-effect
       effect="spiro"
       id="path-effect3775-3"
       is_visible="true" />
    <inkscape:path-effect
       effect="spiro"
       id="path-effect3775-3-4"
       is_visible="true" />
  </defs>
  <sodipodi:namedview
     pagecolor="#ffffff"
     bordercolor="#666666"
     borderopacity="1"
     objecttolerance="10"
     gridtolerance="10"
     guidetolerance="10"
     inkscape:pageopacity="0"
     inkscape:pageshadow="2"
     inkscape:window-width="1920"
     inkscape:window-height="1004"
     id="namedview11"
     showgrid="true"
     inkscape:zoom="1"
     inkscape:cx="259.94679"
     inkscape:cy="160.06844"
     inkscape:window-x="1680"
     inkscape:window-y="0"
     inkscape:window-maximized="1"
     inkscape:current-layer="svg2"
     inkscape:snap-bbox="true"
     inkscape:object-nodes="true"
     inkscape:snap-midpoints="true"
     inkscape:snap-grids="false"
     inkscape:snap-bbox-edge-midpoints="true"
     showguides="true"
     inkscape:guide-bbox="true"
     inkscape:snap-center="true"
     inkscape:snap-object-midpoints="true">
    <inkscape:grid
       type="xygrid"
       id="grid2990"
       empspacing="5"
       visible="true"
       enabled="true"
       snapvisiblegridlinesonly="true"
       spacingx="10px"
       spacingy="10px"
       dotted="false" />
    <sodipodi:guide
       orientation="1,0"
       position="55.202458,260.58927"
       id="guide3872" />
    <sodipodi:guide
       orientation="1,0"
       position="265.17816,340"
       id="guide3874" />
    <sodipodi:guide
       orientation="0,1"
       position="325.098,54.759006"
       id="guide3878" />
  </sodipodi:namedview>
  <metadata
     id="metadata2975">image/svg+xmlen<rdf:RDF>
  <cc:Work
     rdf:about="">
    <dc:format>image/svg+xml</dc:format>
    <dc:type
       rdf:resource="http://purl.org/dc/dcmitype/StillImage" />
    <dc:title></dc:title>
  </cc:Work>
</rdf:RDF>
</metadata>
  <path
     inkscape:connector-curvature="0"
     d="m 226.87343,211.10259 c -10.06831,11.04753 -48.78323,16.88331 -71.92324,16.88331 -10.43072,0 -49.15104,3.59417 -61.823619,-31.89625 z"
     id="path7"
     style="fill:#000000;fill-opacity:1"
     sodipodi:nodetypes="cccc" />
  <path
     inkscape:connector-curvature="0"
     d="m 119.47497,197.65884 c -7.66553,-21.75093 16.57493,-29.48198 38.22123,-7.53819 0,0 -18.80966,-67.06574 14.27769,-92.501475 -96.644729,10.049435 -64.23508,95.685305 -52.49892,100.039665 z"
     id="path9"
     style="fill:#000000;fill-opacity:1"
     sodipodi:nodetypes="cccc" />
  <path
     inkscape:connector-curvature="0"
     d="m 165.92685,204.00557 c 9.64029,-24.12535 32.20231,-20.44417 51.81248,-10.9047 -4.31542,-3.54754 -35.05697,-36.14133 -43.62361,-101.188735 -13.12164,34.566625 -13.95244,72.442325 -8.18887,112.093435 z"
     id="path11"
     style="fill:#000000;fill-opacity:1"
     sodipodi:nodetypes="cccc" />
</svg>

<svg width="320" height="320" viewBox="0 0 320 320" fill="none" xmlns="http://www.w3.org/2000/svg">
<path d="M226.873 211.103C216.805 222.15 178.09 227.986 154.95 227.986C144.519 227.986 105.799 231.58 93.1266 196.09L226.873 211.103Z" fill="black"/>
<path d="M119.475 197.659C111.809 175.908 136.05 168.177 157.696 190.121C157.696 190.121 138.887 123.055 171.974 97.6191C75.3292 107.669 107.739 193.304 119.475 197.659V197.659Z" fill="black"/>
<path d="M165.927 204.006C175.567 179.88 198.129 183.561 217.739 193.101C213.424 189.553 182.682 156.96 174.116 91.9121C160.994 126.479 160.163 164.354 165.927 204.006V204.006Z" fill="black"/>
</svg>
